src/assets/svg/icons/fa/nuevos/classic/thin/trash-arrow-up classic thin.svg

<svg xmlns="http://www.w3.org/2000/svg" viewBox="0 0 448 512"><path d="M115.6 64L143.8 18.8C151.1 7.105 163.9 0 177.7 0H270.3C284.1 0 296.9 7.105 304.2 18.8L332.4 64H440C444.4 64 448 67.58 448 72C448 76.42 444.4 80 440 80H8C3.582 80 0 76.42 0 72C0 67.58 3.582 64 8 64H115.6zM134.4 64H313.6L290.6 27.28C286.2 20.26 278.5 16 270.3 16H177.7C169.5 16 161.8 20.26 157.4 27.28L134.4 64zM39.34 112C43.74 111.7 47.61 114.9 47.97 119.3L76.3 459.3C78.03 480.1 95.36 496 116.2 496H331.8C352.6 496 369.1 480.1 371.7 459.3L400 119.3C400.4 114.9 404.3 111.7 408.7 112C413.1 112.4 416.3 116.3 415.1 120.7L387.6 460.6C385.2 489.7 360.1 512 331.8 512H116.2C87.04 512 62.78 489.7 60.36 460.6L32.03 120.7C31.66 116.3 34.93 112.4 39.34 112H39.34zM224 175.1C226.1 175.1 228.2 176.8 229.7 178.3L309.7 258.3C312.8 261.5 312.8 266.5 309.7 269.7C306.5 272.8 301.5 272.8 298.3 269.7L232 203.3V392C232 396.4 228.4 400 224 400C219.6 400 216 396.4 216 392V203.3L149.7 269.7C146.5 272.8 141.5 272.8 138.3 269.7C135.2 266.5 135.2 261.5 138.3 258.3L218.3 178.3C219.8 176.8 221.9 175.1 224 175.1L224 175.1z"/></svg>

<svg xmlns="http://www.w3.org/2000/svg" viewBox="0 0 448 512"><!--! Font Awesome Pro 6.4.0 by @fontawesome - https://fontawesome.com License - https://fontawesome.com/license (Commercial License) Copyright 2023 Fonticons, Inc. --><path d="M157.4 27.3L134.4 64H313.6l-23-36.7c-4.4-7-12.1-11.3-20.4-11.3H177.7c-8.3 0-16 4.3-20.4 11.3zM115.6 64l28.2-45.2C151.1 7.1 163.9 0 177.7 0h92.5c13.8 0 26.6 7.1 33.9 18.8L332.4 64H440c4.4 0 8 3.6 8 8s-3.6 8-8 8H8c-4.4 0-8-3.6-8-8s3.6-8 8-8H115.6zM39.3 112c4.4-.4 8.3 2.9 8.6 7.3l28.3 340C78 480.1 95.4 496 116.2 496H331.8c20.8 0 38.1-15.9 39.9-36.7l28.3-340c.4-4.4 4.2-7.7 8.6-7.3s7.7 4.2 7.3 8.6l-28.3 340c-2.4 29-26.7 51.4-55.8 51.4H116.2c-29.1 0-53.4-22.3-55.8-51.4L32 120.7c-.4-4.4 2.9-8.3 7.3-8.6zM224 176c2.1 0 4.2 .8 5.7 2.3l80 80c3.1 3.1 3.1 8.2 0 11.3s-8.2 3.1-11.3 0L232 203.3V392c0 4.4-3.6 8-8 8s-8-3.6-8-8V203.3l-66.3 66.3c-3.1 3.1-8.2 3.1-11.3 0s-3.1-8.2 0-11.3l80-80c1.5-1.5 3.5-2.3 5.7-2.3z"/></svg>
